;FLAVOR:Marlin
;TIME:1738
;Filament used: 1.06184m
;Layer height: 0.2
;MINX:121.715
;MINY:121.713
;MINZ:0.2
;MAXX:178.287
;MAXY:178.283
;MAXZ:5
;Generated with Creality Slicer 4.8.2-216
M140 S60
M105
M190 S60
M104 S200
M105
M109 S200
M82 ;absolute extrusion mode

G28 ;Home

G92 E0 ;Reset Extruder
G1 Z2.0 F3000 ;Move Z Axis up
G1 X10.1 Y20 Z0.28 F5000.0 ;Move to start position
G1 X10.1 Y200.0 Z0.28 F1500.0 E15 ;Draw the first line
G1 X10.4 Y200.0 Z0.28 F5000.0 ;Move to side a little
G1 X10.4 Y20 Z0.28 F1500.0 E30 ;Draw the second line
G92 E0 ;Reset Extruder
G1 Z2.0 F3000 ;Move Z Axis up

G92 E0
G92 E0
G1 F2400 E-0.8
;LAYER_COUNT:25
;LAYER:0
M107
G0 F7500 X129.928 Y130.067 Z0.2
;TYPE:SKIRT
G1 F2400 E0
G1 F1500 X130.222 Y129.777 E0.01374
G1 X130.456 Y129.553 E0.02451
G1 X131.042 Y129.008 E0.05113
G1 X131.344 Y128.737 E0.06462
G1 X131.681 Y128.446 E0.07943
G1 X131.938 Y128.231 E0.09058
G1 X132.437 Y127.826 E0.11195
G1 X132.747 Y127.584 E0.12503
G1 X133.125 Y127.299 E0.14078
G1 X133.417 Y127.086 E0.1528
G1 X134.048 Y126.642 E0.17846
G1 X134.355 Y126.433 E0.19081
G1 X134.705 Y126.204 E0.20472
G1 X135.023 Y126.004 E0.21722
G1 X135.544 Y125.688 E0.23749
G1 X135.839 Y125.515 E0.24886
G1 X136.402 Y125.197 E0.27037
G1 X136.745 Y125.011 E0.28334
G1 X137.194 Y124.778 E0.30017
G1 X137.519 Y124.617 E0.31223
G1 X138.103 Y124.338 E0.33376
G1 X138.454 Y124.177 E0.3466
G1 X138.833 Y124.012 E0.36035
G1 X139.171 Y123.872 E0.37252
G1 X140.102 Y123.503 E0.40583
G1 X140.506 Y123.351 E0.42018
G1 X140.878 Y123.22 E0.4333
G1 X141.394 Y123.05 E0.45137
G1 X141.826 Y122.918 E0.4664
G1 X142.406 Y122.753 E0.48645
G1 X142.782 Y122.653 E0.49939
G1 X143.297 Y122.526 E0.51703
G1 X143.566 Y122.463 E0.52622
G1 X144.352 Y122.29 E0.55299
G1 X144.821 Y122.198 E0.56889
G1 X145.261 Y122.121 E0.58374
G1 X145.537 Y122.076 E0.59305
G1 X146.316 Y121.96 E0.61924
G1 X146.746 Y121.905 E0.63366
G1 X147.288 Y121.846 E0.65179
G1 X147.617 Y121.815 E0.66278
G1 X148.012 Y121.784 E0.67596
G1 X148.415 Y121.76 E0.68939
G1 X149.231 Y121.726 E0.71655
G1 X149.601 Y121.716 E0.72886
G1 X149.977 Y121.713 E0.74137
G1 X150.327 Y121.716 E0.75301
G1 X150.956 Y121.731 E0.77394
G1 X151.348 Y121.747 E0.78699
G1 X151.919 Y121.781 E0.80601
G1 X152.275 Y121.808 E0.81789
G1 X152.687 Y121.846 E0.83165
G1 X153.029 Y121.883 E0.84309
G1 X153.99 Y122.002 E0.8753
G1 X154.366 Y122.056 E0.88793
G1 X154.781 Y122.122 E0.90191
G1 X155.144 Y122.186 E0.91417
G1 X155.676 Y122.289 E0.93219
G1 X156.079 Y122.374 E0.94589
G1 X156.659 Y122.509 E0.9657
G1 X157 Y122.595 E0.97739
G1 X157.551 Y122.742 E0.99636
G1 X157.88 Y122.835 E1.00773
G1 X158.416 Y122.996 E1.02634
G1 X158.795 Y123.117 E1.03958
G1 X159.377 Y123.315 E1.06002
G1 X159.712 Y123.435 E1.07186
G1 X160.288 Y123.652 E1.09233
G1 X160.648 Y123.795 E1.10522
G1 X161.115 Y123.99 E1.12205
G1 X161.442 Y124.133 E1.13392
G1 X162.012 Y124.393 E1.15476
G1 X162.344 Y124.551 E1.16698
G1 X162.867 Y124.811 E1.18641
G1 X163.19 Y124.978 E1.1985
G1 X163.676 Y125.24 E1.21687
G1 X164.021 Y125.435 E1.23005
G1 X164.541 Y125.74 E1.2501
G1 X164.837 Y125.92 E1.26162
G1 X165.315 Y126.221 E1.28041
G1 X165.618 Y126.419 E1.29245
G1 X166.153 Y126.781 E1.31393
G1 X166.491 Y127.018 E1.32766
G1 X166.839 Y127.273 E1.34201
G1 X167.096 Y127.468 E1.35274
G1 X167.684 Y127.926 E1.37753
G1 X167.985 Y128.168 E1.39038
G1 X168.316 Y128.445 E1.40473
G1 X168.594 Y128.686 E1.41697
G1 X169.158 Y129.191 E1.44215
G1 X169.436 Y129.449 E1.45477
G1 X169.634 Y129.639 E1.46389
G1 X169.915 Y129.919 E1.47709
G1 X170.426 Y130.446 E1.5015
G1 X170.62 Y130.651 E1.51089
G1 X171.145 Y131.221 E1.53666
G1 X171.427 Y131.539 E1.5508
G1 X171.709 Y131.87 E1.56526
G1 X171.937 Y132.147 E1.5772
G1 X172.346 Y132.66 E1.59902
G1 X172.572 Y132.953 E1.61132
G1 X172.833 Y133.304 E1.62587
G1 X173.057 Y133.617 E1.63867
G1 X173.423 Y134.147 E1.6601
G1 X173.624 Y134.448 E1.67213
G1 X173.961 Y134.972 E1.69286
G1 X174.152 Y135.281 E1.70494
G1 X174.422 Y135.733 E1.72245
G1 X174.61 Y136.06 E1.735
G1 X174.871 Y136.533 E1.75296
G1 X175.049 Y136.868 E1.76558
G1 X175.452 Y137.662 E1.7952
G1 X175.644 Y138.056 E1.80977
G1 X175.844 Y138.498 E1.82591
G1 X176.089 Y139.072 E1.84667
G1 X176.227 Y139.41 E1.85881
G1 X176.449 Y139.982 E1.87922
G1 X176.584 Y140.351 E1.89229
G1 X176.952 Y141.414 E1.9297
G1 X177.002 Y141.567 E1.93505
G1 X177.151 Y142.064 E1.95231
G1 X177.333 Y142.725 E1.97511
G1 X177.424 Y143.078 E1.98724
G1 X177.562 Y143.653 E2.00691
G1 X177.641 Y144.004 E2.01887
G1 X177.765 Y144.607 E2.03935
G1 X177.833 Y144.971 E2.05167
G1 X177.916 Y145.457 E2.06806
G1 X177.976 Y145.851 E2.08132
G1 X178.097 Y146.756 E2.11169
G1 X178.139 Y147.109 E2.12351
G1 X178.187 Y147.629 E2.14088
G1 X178.234 Y148.325 E2.16408
G1 X178.253 Y148.718 E2.17717
G1 X178.285 Y149.747 E2.21141
G1 X178.287 Y149.876 E2.2157
G1 X178.281 Y150.44 E2.23446
G1 X178.259 Y151.055 E2.25493
G1 X178.245 Y151.344 E2.26455
G1 X178.185 Y152.31 E2.29674
G1 X178.153 Y152.702 E2.30982
G1 X178.117 Y153.069 E2.32209
G1 X178.071 Y153.464 E2.33532
G1 X177.988 Y154.08 E2.35599
G1 X177.932 Y154.452 E2.3685
G1 X177.832 Y155.041 E2.38837
G1 X177.768 Y155.384 E2.39998
G1 X177.672 Y155.858 E2.41606
G1 X177.588 Y156.238 E2.42901
G1 X177.419 Y156.943 E2.45312
G1 X177.322 Y157.319 E2.46603
G1 X177.213 Y157.712 E2.4796
G1 X177.119 Y158.032 E2.49069
G1 X176.899 Y158.741 E2.51538
G1 X176.774 Y159.118 E2.52859
G1 X176.595 Y159.629 E2.5466
G1 X176.472 Y159.964 E2.55847
G1 X176.285 Y160.447 E2.5757
G1 X176.143 Y160.795 E2.5882
G1 X175.912 Y161.336 E2.60776
G1 X175.768 Y161.659 E2.61953
G1 X175.491 Y162.254 E2.64136
G1 X175.317 Y162.61 E2.65453
G1 X175.068 Y163.098 E2.67276
G1 X174.911 Y163.395 E2.68393
G1 X174.677 Y163.821 E2.7001
G1 X174.489 Y164.15 E2.7127
G1 X174.101 Y164.802 E2.73793
G1 X173.915 Y165.104 E2.74973
G1 X173.718 Y165.412 E2.76189
G1 X173.496 Y165.745 E2.7752
G1 X173.024 Y166.427 E2.80279
G1 X172.822 Y166.709 E2.81433
G1 X172.569 Y167.051 E2.82847
G1 X172.341 Y167.349 E2.84095
G1 X172.002 Y167.776 E2.85909
G1 X171.758 Y168.072 E2.87185
G1 X171.296 Y168.614 E2.89553
G1 X171.058 Y168.885 E2.90753
G1 X170.803 Y169.165 E2.92013
G1 X170.54 Y169.443 E2.93285
G1 X169.877 Y170.122 E2.96442
G1 X169.69 Y170.309 E2.97321
G1 X169.523 Y170.472 E2.98098
G1 X169.152 Y170.818 E2.99785
G1 X168.864 Y171.08 E3.0108
G1 X168.506 Y171.394 E3.02664
G1 X168.007 Y171.813 E3.04831
G1 X167.715 Y172.049 E3.0608
G1 X167.134 Y172.504 E3.08534
G1 X166.826 Y172.737 E3.09819
G1 X166.543 Y172.943 E3.10983
G1 X166.246 Y173.152 E3.12191
G1 X165.745 Y173.492 E3.14205
G1 X165.461 Y173.678 E3.15334
G1 X164.736 Y174.138 E3.18189
G1 X164.397 Y174.345 E3.19511
G1 X164.091 Y174.524 E3.2069
G1 X163.766 Y174.707 E3.2193
G1 X163.307 Y174.955 E3.23665
G1 X163.016 Y175.106 E3.24756
G1 X162.385 Y175.423 E3.27105
G1 X162.005 Y175.605 E3.28506
G1 X161.48 Y175.844 E3.30424
G1 X161.187 Y175.972 E3.31488
G1 X160.645 Y176.2 E3.33444
G1 X160.248 Y176.359 E3.34866
G1 X159.838 Y176.513 E3.36323
G1 X159.559 Y176.613 E3.37308
G1 X158.739 Y176.896 E3.40194
G1 X158.332 Y177.028 E3.41617
G1 X157.872 Y177.167 E3.43215
G1 X157.53 Y177.264 E3.44397
G1 X157.081 Y177.384 E3.45943
G1 X156.731 Y177.471 E3.47143
G1 X156.133 Y177.61 E3.49185
G1 X155.716 Y177.699 E3.50603
G1 X155.247 Y177.789 E3.52191
G1 X154.968 Y177.839 E3.53134
G1 X154.097 Y177.983 E3.5607
G1 X153.719 Y178.039 E3.57341
G1 X153.326 Y178.09 E3.58659
G1 X152.916 Y178.135 E3.60031
G1 X152.339 Y178.188 E3.61958
G1 X151.972 Y178.215 E3.63182
G1 X151.336 Y178.252 E3.65301
G1 X150.97 Y178.268 E3.6652
G1 X150.487 Y178.28 E3.68127
G1 X150.112 Y178.283 E3.69374
G1 X149.248 Y178.275 E3.72248
G1 X148.569 Y178.247 E3.74508
G1 X147.53 Y178.173 E3.77973
G1 X147.111 Y178.135 E3.79372
G1 X146.628 Y178.082 E3.80988
G1 X146.263 Y178.036 E3.82212
G1 X145.609 Y177.942 E3.84409
G1 X145.248 Y177.884 E3.85625
G1 X144.832 Y177.81 E3.87031
G1 X144.47 Y177.739 E3.88258
G1 X143.76 Y177.588 E3.90672
G1 X143.391 Y177.503 E3.91931
G1 X142.933 Y177.389 E3.93501
G1 X142.596 Y177.3 E3.9466
G1 X142.041 Y177.143 E3.96579
G1 X141.669 Y177.03 E3.97872
G1 X141.025 Y176.823 E4.00122
G1 X140.696 Y176.712 E4.01277
G1 X140.253 Y176.554 E4.02841
G1 X139.876 Y176.412 E4.04181
G1 X139.226 Y176.153 E4.06508
G1 X138.899 Y176.016 E4.07687
G1 X138.436 Y175.814 E4.09367
G1 X138.113 Y175.667 E4.10548
G1 X137.627 Y175.436 E4.12337
G1 X137.274 Y175.26 E4.13649
G1 X136.624 Y174.922 E4.16086
G1 X136.293 Y174.743 E4.17338
G1 X135.85 Y174.493 E4.1903
G1 X135.56 Y174.323 E4.20148
G1 X135.185 Y174.096 E4.21606
G1 X134.879 Y173.904 E4.22807
G1 X134.277 Y173.512 E4.25196
G1 X133.939 Y173.283 E4.26554
G1 X133.403 Y172.905 E4.28736
G1 X133.101 Y172.684 E4.2998
G1 X132.8 Y172.456 E4.31236
G1 X132.535 Y172.249 E4.32355
G1 X131.94 Y171.769 E4.34897
G1 X131.626 Y171.506 E4.3626
G1 X131.364 Y171.278 E4.37415
G1 X131.101 Y171.041 E4.38592
G1 X130.612 Y170.587 E4.40812
G1 X130.373 Y170.359 E4.4191
G1 X129.802 Y169.796 E4.44577
G1 X129.538 Y169.527 E4.45831
G1 X129.216 Y169.187 E4.47389
G1 X128.941 Y168.885 E4.48747
G1 X128.607 Y168.505 E4.5043
G1 X128.386 Y168.245 E4.51565
G1 X128.022 Y167.804 E4.53467
G1 X127.774 Y167.494 E4.54787
G1 X127.262 Y166.826 E4.57586
G1 X126.999 Y166.472 E4.59053
G1 X126.699 Y166.043 E4.60794
G1 X126.299 Y165.442 E4.63195
G1 X126.111 Y165.15 E4.6435
G1 X125.875 Y164.77 E4.65838
G1 X125.677 Y164.439 E4.67121
G1 X125.259 Y163.71 E4.69916
G1 X125.085 Y163.394 E4.71116
G1 X124.938 Y163.117 E4.72159
G1 X124.757 Y162.76 E4.7349
G1 X124.517 Y162.265 E4.7532
G1 X124.395 Y162.004 E4.76278
G1 X124.015 Y161.165 E4.79342
G1 X123.846 Y160.773 E4.80761
G1 X123.682 Y160.37 E4.82208
G1 X123.549 Y160.027 E4.83432
G1 X123.409 Y159.647 E4.84779
G1 X123.278 Y159.271 E4.86103
G1 X123.078 Y158.661 E4.88238
G1 X122.987 Y158.37 E4.89252
G1 X122.744 Y157.553 E4.92087
G1 X122.63 Y157.138 E4.93519
G1 X122.534 Y156.762 E4.9481
G1 X122.458 Y156.444 E4.95897
G1 X122.336 Y155.899 E4.97755
G1 X122.26 Y155.534 E4.98995
G1 X122.155 Y154.977 E5.0088
G1 X122.085 Y154.561 E5.02283
G1 X122.023 Y154.145 E5.03682
G1 X121.986 Y153.87 E5.04605
G1 X121.884 Y153.043 E5.07376
G1 X121.836 Y152.578 E5.08931
G1 X121.804 Y152.18 E5.10259
G1 X121.786 Y151.916 E5.11139
G1 X121.736 Y151.027 E5.14101
G1 X121.721 Y150.592 E5.15548
G1 X121.715 Y150.231 E5.16749
G1 X121.715 Y149.831 E5.1808
G1 X121.723 Y149.426 E5.19427
G1 X121.733 Y149.137 E5.20389
G1 X121.774 Y148.247 E5.23352
G1 X121.802 Y147.813 E5.24798
G1 X121.864 Y147.09 E5.27212
G1 X121.905 Y146.686 E5.28563
G1 X121.971 Y146.167 E5.30303
G1 X122.072 Y145.506 E5.32527
G1 X122.135 Y145.14 E5.33762
G1 X122.268 Y144.431 E5.36161
G1 X122.337 Y144.089 E5.37322
G1 X122.414 Y143.74 E5.3851
G1 X122.509 Y143.346 E5.39858
G1 X122.658 Y142.772 E5.41831
G1 X122.739 Y142.478 E5.42845
G1 X122.985 Y141.628 E5.45788
G1 X123.098 Y141.259 E5.47072
G1 X123.218 Y140.893 E5.48353
G1 X123.351 Y140.512 E5.49695
G1 X123.52 Y140.054 E5.51319
G1 X123.661 Y139.692 E5.52611
G1 X123.881 Y139.155 E5.54541
G1 X124.006 Y138.862 E5.556
G1 X124.358 Y138.069 E5.58486
G1 X124.514 Y137.734 E5.59715
G1 X124.657 Y137.439 E5.60806
G1 X124.839 Y137.08 E5.62144
G1 X125.253 Y136.3 E5.65081
G1 X125.45 Y135.941 E5.66443
G1 X125.72 Y135.482 E5.68215
G1 X126.109 Y134.856 E5.70666
G1 X126.29 Y134.574 E5.7178
G1 X126.601 Y134.106 E5.73649
G1 X126.823 Y133.785 E5.74947
G1 X127.208 Y133.248 E5.77145
G1 X127.426 Y132.954 E5.78362
G1 X127.705 Y132.591 E5.79885
G1 X127.921 Y132.319 E5.8104
G1 X128.34 Y131.808 E5.83238
G1 X128.592 Y131.512 E5.84531
G1 X128.969 Y131.084 E5.86428
G1 X129.212 Y130.817 E5.87629
G1 X129.642 Y130.36 E5.89716
G1 X129.928 Y130.067 E5.91078
G0 F7500 X130.209 Y130.352
G1 F1500 X130.503 Y130.062 E5.92452
G1 X130.728 Y129.846 E5.93489
G1 X131.314 Y129.301 E5.96151
G1 X131.605 Y129.04 E5.97451
G1 X131.942 Y128.749 E5.98932
G1 X132.19 Y128.542 E6.00006
G1 X132.689 Y128.137 E6.02144
G1 X132.988 Y127.903 E6.03406
G1 X133.366 Y127.618 E6.04981
G1 X133.647 Y127.413 E6.06138
G1 X134.278 Y126.969 E6.08704
G1 X134.574 Y126.768 E6.09894
G1 X134.924 Y126.539 E6.11285
G1 X135.231 Y126.346 E6.12491
G1 X135.752 Y126.03 E6.14518
G1 X136.036 Y125.864 E6.15612
G1 X136.599 Y125.546 E6.17763
G1 X136.93 Y125.366 E6.19016
G1 X137.379 Y125.133 E6.20698
G1 X137.692 Y124.977 E6.21862
G1 X138.276 Y124.698 E6.24014
G1 X138.614 Y124.544 E6.2525
G1 X138.993 Y124.379 E6.26624
G1 X139.318 Y124.244 E6.27795
G1 X140.249 Y123.875 E6.31126
G1 X140.644 Y123.726 E6.3253
G1 X141.003 Y123.6 E6.33795
G1 X141.519 Y123.43 E6.35602
G1 X141.936 Y123.303 E6.37052
G1 X142.516 Y123.138 E6.39058
G1 X142.878 Y123.041 E6.40304
G1 X143.393 Y122.914 E6.42069
G1 X143.652 Y122.854 E6.42953
G1 X144.438 Y122.681 E6.4563
G1 X144.89 Y122.592 E6.47162
G1 X145.33 Y122.515 E6.48647
G1 X145.596 Y122.472 E6.49544
G1 X146.375 Y122.356 E6.52163
G1 X146.789 Y122.302 E6.53552
G1 X147.331 Y122.243 E6.55365
G1 X147.649 Y122.213 E6.56428
G1 X148.044 Y122.182 E6.57745
G1 X148.432 Y122.159 E6.59038
G1 X149.248 Y122.125 E6.61755
G1 X149.604 Y122.116 E6.62939
G1 X149.98 Y122.113 E6.6419
G1 X150.318 Y122.116 E6.65314
G1 X150.947 Y122.131 E6.67406
G1 X151.324 Y122.147 E6.68662
G1 X151.895 Y122.181 E6.70564
G1 X152.239 Y122.207 E6.71711
G1 X152.651 Y122.245 E6.73088
G1 X152.98 Y122.28 E6.74188
G1 X153.941 Y122.399 E6.77409
G1 X154.303 Y122.451 E6.78625
G1 X154.718 Y122.517 E6.80023
G1 X155.068 Y122.578 E6.81204
G1 X155.6 Y122.681 E6.83007
G1 X155.988 Y122.764 E6.84326
G1 X156.568 Y122.899 E6.86307
G1 X156.897 Y122.981 E6.87435
G1 X157.448 Y123.128 E6.89332
G1 X157.765 Y123.218 E6.90428
G1 X158.301 Y123.379 E6.92289
G1 X158.666 Y123.496 E6.93564
G1 X159.248 Y123.694 E6.95608
G1 X159.571 Y123.81 E6.9675
G1 X160.147 Y124.027 E6.98797
G1 X160.494 Y124.164 E7.00038
G1 X160.961 Y124.359 E7.01721
G1 X161.276 Y124.497 E7.02865
G1 X161.846 Y124.757 E7.04949
G1 X162.166 Y124.909 E7.06127
G1 X162.689 Y125.169 E7.0807
G1 X163 Y125.33 E7.09234
G1 X163.486 Y125.592 E7.11071
G1 X163.819 Y125.78 E7.12343
G1 X164.339 Y126.085 E7.14348
G1 X164.624 Y126.258 E7.15457
G1 X165.102 Y126.559 E7.17335
G1 X165.394 Y126.75 E7.18496
G1 X165.929 Y127.112 E7.20644
G1 X166.254 Y127.341 E7.21967
G1 X166.602 Y127.596 E7.23402
G1 X166.851 Y127.783 E7.24437
G1 X167.439 Y128.241 E7.26916
G1 X167.728 Y128.475 E7.28153
G1 X168.059 Y128.752 E7.29589
G1 X168.327 Y128.984 E7.30768
G1 X168.891 Y129.489 E7.33286
G1 X169.159 Y129.738 E7.34502
G1 X169.357 Y129.928 E7.35415
G1 X169.628 Y130.197 E7.36685
G1 X170.139 Y130.724 E7.39127
G1 X170.326 Y130.922 E7.40032
G1 X170.851 Y131.492 E7.4261
G1 X171.123 Y131.799 E7.43974
G1 X171.405 Y132.13 E7.4542
G1 X171.624 Y132.396 E7.46566
G1 X172.033 Y132.909 E7.48749
G1 X172.251 Y133.192 E7.49937
G1 X172.512 Y133.543 E7.51392
G1 X172.728 Y133.845 E7.52626
G1 X173.094 Y134.375 E7.54769
G1 X173.287 Y134.664 E7.55925
G1 X173.624 Y135.188 E7.57997
G1 X173.809 Y135.486 E7.59163
G1 X174.079 Y135.938 E7.60914
G1 X174.26 Y136.253 E7.62123
G1 X174.521 Y136.726 E7.6392
G1 X174.692 Y137.049 E7.65135
G1 X175.095 Y137.843 E7.68097
G1 X175.283 Y138.229 E7.69525
G1 X175.476 Y138.655 E7.7108
G1 X175.721 Y139.229 E7.73156
G1 X175.854 Y139.555 E7.74327
G1 X176.076 Y140.127 E7.76368
G1 X176.207 Y140.482 E7.77626
G1 X176.509 Y141.351 E7.80686
G1 X176.622 Y141.691 E7.81878
G1 X176.766 Y142.17 E7.83542
G1 X176.948 Y142.831 E7.85822
G1 X177.035 Y143.171 E7.86989
G1 X177.173 Y143.746 E7.88956
G1 X177.249 Y144.085 E7.90111
G1 X177.373 Y144.688 E7.92159
G1 X177.439 Y145.039 E7.93347
G1 X177.522 Y145.525 E7.94987
G1 X177.58 Y145.904 E7.96262
G1 X177.701 Y146.809 E7.99299
G1 X177.742 Y147.155 E8.00458
