;FLAVOR:Marlin
;TIME:12993
;Filament used: 8.69144m
;Layer height: 0.2
;MINX:118.919
;MINY:60.257
;MINZ:0.2
;MAXX:179.727
;MAXY:239.744
;MAXZ:20
;Generated with Creality Slicer 4.8.2-216
M140 S60
M105
M190 S60
M104 S200
M105
M109 S200
M82 ;absolute extrusion mode

G28 ;Home

G92 E0 ;Reset Extruder
G1 Z2.0 F3000 ;Move Z Axis up
G1 X10.1 Y20 Z0.28 F5000.0 ;Move to start position
G1 X10.1 Y200.0 Z0.28 F1500.0 E15 ;Draw the first line
G1 X10.4 Y200.0 Z0.28 F5000.0 ;Move to side a little
G1 X10.4 Y20 Z0.28 F1500.0 E30 ;Draw the second line
G92 E0 ;Reset Extruder
G1 Z2.0 F3000 ;Move Z Axis up

G92 E0
G92 E0
G1 F2400 E-0.8
;LAYER_COUNT:100
;LAYER:0
M107
G0 F7500 X120.301 Y66.2 Z0.2
;TYPE:SKIRT
G1 F2400 E0
G1 F1500 X120.791 Y65.4 E0.0312
G1 X121.347 Y64.645 E0.06239
G1 X121.966 Y63.94 E0.09359
G1 X122.642 Y63.29 E0.12478
G1 X123.371 Y62.7 E0.15598
G1 X124.148 Y62.175 E0.18717
G1 X124.966 Y61.717 E0.21835
G1 X125.821 Y61.331 E0.24955
G1 X126.706 Y61.019 E0.28076
G1 X127.613 Y60.783 E0.31193
G1 X128.538 Y60.626 E0.34314
G1 X129.364 Y60.553 E0.37072
G1 X129.661 Y60.538 E0.38061
G1 X130.024 Y60.526 E0.39269
G1 X145.259 Y60.26 E0.89948
G1 X145.915 Y60.257 E0.9213
G1 X146.319 Y60.263 E0.93474
G1 X146.661 Y60.274 E0.94612
G1 X147.101 Y60.297 E0.96078
G1 X147.681 Y60.339 E0.98012
G1 X148.949 Y60.505 E1.02265
G1 X149.672 Y60.643 E1.04713
G1 X150.075 Y60.728 E1.06083
G1 X150.349 Y60.791 E1.07018
G1 X151.524 Y61.131 E1.11087
G1 X152.1 Y61.333 E1.13117
G1 X152.476 Y61.472 E1.1445
G1 X152.81 Y61.603 E1.15643
G1 X153.937 Y62.12 E1.19767
G1 X154.576 Y62.458 E1.22172
G1 X154.886 Y62.629 E1.23349
G1 X155.119 Y62.762 E1.24241
G1 X156.23 Y63.488 E1.28656
G1 X156.78 Y63.897 E1.30935
G1 X157.022 Y64.082 E1.31948
G1 X157.262 Y64.271 E1.32965
G1 X158.258 Y65.159 E1.37403
G1 X158.743 Y65.647 E1.39691
G1 X158.973 Y65.885 E1.40792
G1 X159.177 Y66.103 E1.41785
G1 X159.999 Y67.092 E1.46062
G1 X160.4 Y67.636 E1.4831
G1 X160.627 Y67.955 E1.49612
G1 X160.841 Y68.268 E1.50873
G1 X161.081 Y68.631 E1.52321
G1 X161.237 Y68.878 E1.53292
G1 X161.442 Y69.211 E1.54593
G1 X175.178 Y92.071 E2.43296
G1 X175.486 Y92.599 E2.45329
G1 X175.675 Y92.935 E2.46611
G1 X176.088 Y93.704 E2.49514
G1 X176.262 Y94.042 E2.50779
G1 X176.373 Y94.267 E2.51613
G1 X176.727 Y95.064 E2.54514
G1 X176.821 Y95.3 E2.55359
G1 X177.006 Y95.799 E2.57129
G1 X177.203 Y96.373 E2.59147
G1 X177.473 Y97.285 E2.62311
G1 X177.542 Y97.562 E2.6326
G1 X177.644 Y98.012 E2.64795
G1 X177.76 Y98.578 E2.66716
G1 X177.917 Y99.576 E2.70077
G1 X177.95 Y99.874 E2.71074
G1 X177.992 Y100.34 E2.7263
G1 X178.015 Y100.679 E2.7376
G1 X178.033 Y101.021 E2.74899
G1 X178.075 Y102.168 E2.78717
G1 X179.723 Y196.495 E5.92497
G1 X179.727 Y197.064 E5.9439
G1 X179.722 Y197.447 E5.95664
G1 X179.697 Y198.275 E5.98419
G1 X179.68 Y198.632 E5.99608
G1 X179.663 Y198.903 E6.00511
G1 X179.567 Y199.822 E6.03584
G1 X179.537 Y200.025 E6.04267
G1 X179.473 Y200.414 E6.05578
G1 X179.423 Y200.681 E6.06481
G1 X179.311 Y201.24 E6.08378
G1 X179.105 Y202.091 E6.1129
G1 X179.027 Y202.365 E6.12237
G1 X178.877 Y202.849 E6.13923
G1 X178.697 Y203.386 E6.15806
G1 X178.325 Y204.344 E6.19224
G1 X178.201 Y204.624 E6.20243
G1 X178.029 Y204.993 E6.21597
G1 X177.888 Y205.282 E6.22667
G1 X177.717 Y205.618 E6.23921
G1 X177.177 Y206.635 E6.2775
G1 X177.083 Y206.808 E6.28405
G1 X164.271 Y229.924 E7.16309
G1 X163.925 Y230.527 E7.18621
G1 X163.781 Y230.77 E7.1956
G1 X163.652 Y230.982 E7.20386
G1 X163.427 Y231.338 E7.21787
G1 X163.284 Y231.555 E7.22651
G1 X162.983 Y231.999 E7.24435
G1 X162.207 Y233.011 E7.28677
G1 X161.73 Y233.564 E7.31106
G1 X161.462 Y233.864 E7.32444
G1 X161.28 Y234.06 E7.33333
G1 X160.388 Y234.918 E7.3745
G1 X159.869 Y235.364 E7.39726
G1 X159.581 Y235.603 E7.4097
G1 X159.354 Y235.785 E7.41938
G1 X158.31 Y236.527 E7.46198
G1 X157.703 Y236.907 E7.4858
G1 X157.402 Y237.089 E7.4975
G1 X157.141 Y237.241 E7.50755
G1 X155.979 Y237.828 E7.55085
G1 X155.379 Y238.088 E7.57259
G1 X155.067 Y238.218 E7.58384
G1 X154.77 Y238.336 E7.59447
G1 X153.535 Y238.744 E7.63773
G1 X152.892 Y238.915 E7.65986
G1 X152.6 Y238.988 E7.66987
G1 X152.296 Y239.06 E7.68026
G1 X150.966 Y239.29 E7.72515
G1 X150.249 Y239.369 E7.74914
G1 X149.92 Y239.4 E7.76013
G1 X149.582 Y239.427 E7.77141
G1 X149.227 Y239.45 E7.78324
G1 X148.774 Y239.469 E7.79832
G1 X148.508 Y239.476 E7.80717
G1 X133.384 Y239.74 E8.31028
G1 X132.734 Y239.744 E8.3319
G1 X131.796 Y239.71 E8.36311
G1 X130.866 Y239.596 E8.39428
G1 X129.948 Y239.403 E8.42548
G1 X129.05 Y239.133 E8.45667
G1 X128.178 Y238.787 E8.48787
G1 X127.339 Y238.368 E8.51906
G1 X126.538 Y237.879 E8.55027
G1 X125.782 Y237.324 E8.58147
G1 X125.076 Y236.706 E8.61267
G1 X124.426 Y236.031 E8.64384
G1 X123.835 Y235.303 E8.67503
G1 X123.308 Y234.526 E8.70626
G1 X122.85 Y233.708 E8.73744
G1 X122.463 Y232.854 E8.76862
G1 X122.15 Y231.97 E8.79981
G1 X121.913 Y231.062 E8.83102
G1 X121.755 Y230.138 E8.8622
G1 X121.68 Y229.29 E8.89052
G1 X121.665 Y228.988 E8.90057
G1 X121.653 Y228.634 E8.91235
G1 X121.209 Y203.177 E9.75919
G1 X121.196 Y201.722 E9.80758
G1 X121.226 Y200.785 E9.83876
G1 X121.336 Y199.854 E9.86994
G1 X121.525 Y198.935 E9.90115
G1 X121.792 Y198.036 E9.93234
G1 X122.134 Y197.163 E9.96353
G1 X122.63 Y196.176 E10.00027
G1 X122.813 Y195.854 E10.01258
G1 X124.078 Y193.562 E10.09966
G1 X125.231 Y191.329 E10.18324
G1 X126.328 Y189.047 E10.26746
G1 X127.338 Y186.783 E10.34991
G1 X128.314 Y184.423 E10.43485
G1 X129.218 Y182.049 E10.51934
G1 X130.026 Y179.721 E10.6013
G1 X130.782 Y177.337 E10.68449
G1 X131.484 Y174.878 E10.76954
G1 X132.114 Y172.418 E10.854
G1 X132.656 Y170.008 E10.93616
G1 X133.147 Y167.502 E11.0211
G1 X133.558 Y165.038 E11.10418
G1 X133.9 Y162.559 E11.18741
G1 X134.173 Y160.062 E11.27096
G1 X134.378 Y157.518 E11.35585
G1 X134.509 Y155.023 E11.43895
G1 X134.568 Y152.504 E11.52275
G1 X134.558 Y149.982 E11.60663
G1 X134.476 Y147.486 E11.6897
G1 X134.32 Y144.936 E11.77467
G1 X134.099 Y142.465 E11.85718
G1 X133.802 Y139.95 E11.94141
G1 X133.434 Y137.44 E12.02579
G1 X133.003 Y134.993 E12.10843
G1 X132.502 Y132.546 E12.1915
G1 X131.924 Y130.082 E12.27568
G1 X131.265 Y127.598 E12.36116
G1 X130.568 Y125.239 E12.44297
G1 X129.779 Y122.821 E12.52757
G1 X128.927 Y120.441 E12.61165
G1 X128.017 Y118.111 E12.69484
G1 X127.038 Y115.797 E12.77841
G1 X125.991 Y113.505 E12.86222
G1 X124.887 Y111.26 E12.94543
G1 X123.7 Y109.007 E13.03013
G1 X122.478 Y106.843 E13.11279
G1 X121.315 Y104.923 E13.18745
G1 X120.922 Y104.256 E13.2132
G1 X120.481 Y103.428 E13.2444
G1 X120.111 Y102.566 E13.2756
G1 X119.817 Y101.676 E13.30677
G1 X119.6 Y100.763 E13.33799
G1 X119.461 Y99.836 E13.36916
G1 X119.407 Y99.087 E13.39414
G1 X119.389 Y98.597 E13.41045
G1 X119.367 Y97.663 E13.44152
G1 X118.922 Y72.199 E14.28859
G1 X118.919 Y71.594 E14.30871
G1 X118.954 Y70.656 E14.33993
G1 X119.07 Y69.726 E14.3711
G1 X119.263 Y68.808 E14.4023
G1 X119.535 Y67.91 E14.43351
G1 X119.882 Y67.039 E14.46469
G1 X120.301 Y66.2 E14.49588
G0 F7500 X120.701 Y66.306
G1 F1500 X121.19 Y65.526 E14.5265
G1 X121.744 Y64.791 E14.55712
G1 X122.361 Y64.107 E14.58775
G1 X123.034 Y63.479 E14.61837
G1 X123.76 Y62.912 E14.64901
G1 X124.531 Y62.41 E14.67961
G1 X125.344 Y61.977 E14.71024
G1 X126.191 Y61.616 E14.74087
G1 X127.066 Y61.33 E14.77149
G1 X127.962 Y61.121 E14.80209
G1 X128.874 Y60.991 E14.83273
G1 X129.384 Y60.952 E14.84974
G1 X129.681 Y60.937 E14.85963
G1 X130.031 Y60.926 E14.87128
G1 X145.261 Y60.66 E15.37791
G1 X145.917 Y60.657 E15.39972
G1 X146.306 Y60.662 E15.41266
G1 X146.648 Y60.673 E15.42404
G1 X147.073 Y60.696 E15.4382
G1 X147.653 Y60.738 E15.45754
G1 X148.874 Y60.898 E15.4985
G1 X149.597 Y61.036 E15.52298
G1 X149.985 Y61.118 E15.53617
G1 X150.259 Y61.181 E15.54552
G1 X151.392 Y61.508 E15.58474
G1 X151.968 Y61.71 E15.60505
G1 X152.33 Y61.845 E15.6179
G1 X152.664 Y61.976 E15.62983
G1 X153.75 Y62.474 E15.66957
G1 X154.389 Y62.812 E15.69361
G1 X154.688 Y62.976 E15.70495
G1 X154.921 Y63.109 E15.71388
G1 X155.991 Y63.809 E15.7564
G1 X156.541 Y64.218 E15.7792
G1 X156.774 Y64.396 E15.78895
G1 X157.014 Y64.585 E15.79911
G1 X157.974 Y65.441 E15.84189
G1 X158.459 Y65.929 E15.86478
G1 X158.681 Y66.158 E15.87538
G1 X158.885 Y66.376 E15.88531
G1 X159.677 Y67.329 E15.92653
G1 X160.078 Y67.873 E15.94901
G1 X160.296 Y68.18 E15.96153
G1 X160.637 Y68.682 E15.98171
G1 X160.746 Y68.849 E15.98835
G1 X160.897 Y69.088 E15.99775
G1 X161.099 Y69.418 E16.01062
G1 X174.906 Y92.397 E16.90225
G1 X175.141 Y92.8 E16.91777
G1 X175.322 Y93.125 E16.93014
G1 X175.735 Y93.894 E16.95918
G1 X175.903 Y94.219 E16.97134
G1 X176.014 Y94.444 E16.97969
G1 X176.356 Y95.212 E17.00765
G1 X176.45 Y95.448 E17.0161
G1 X176.628 Y95.929 E17.03316
G1 X176.825 Y96.503 E17.05334
G1 X177.085 Y97.382 E17.08383
G1 X177.154 Y97.659 E17.09333
G1 X177.252 Y98.093 E17.10812
G1 X177.368 Y98.659 E17.12734
G1 X177.52 Y99.62 E17.1597
G1 X177.553 Y99.918 E17.16967
G1 X177.593 Y100.367 E17.18467
G1 X177.616 Y100.706 E17.19597
G1 X177.633 Y101.036 E17.20696
G1 X177.675 Y102.183 E17.24513
G1 X177.68 Y102.386 E17.25189
G1 X179.325 Y196.637 E20.38716
G1 X179.327 Y197.065 E20.4014
G1 X179.322 Y197.435 E20.41371
G1 X179.297 Y198.263 E20.44126
G1 X179.281 Y198.607 E20.45271
G1 X179.264 Y198.878 E20.46174
G1 X179.171 Y199.764 E20.49137
G1 X179.097 Y200.242 E20.50746
G1 X179.03 Y200.602 E20.51964
G1 X178.918 Y201.161 E20.5386
G1 X178.72 Y201.981 E20.56666
G1 X178.642 Y202.255 E20.57614
G1 X178.497 Y202.722 E20.5924
G1 X178.317 Y203.259 E20.61124
G1 X177.959 Y204.182 E20.64417
G1 X177.835 Y204.462 E20.65435
G1 X177.67 Y204.818 E20.6674
G1 X177.529 Y205.107 E20.6781
G1 X177.364 Y205.43 E20.69016
G1 X176.824 Y206.447 E20.72846
G1 X164.001 Y229.587 E21.60837
G1 X163.578 Y230.327 E21.63672
G1 X163.439 Y230.562 E21.6458
G1 X163.167 Y231.004 E21.66306
G1 X162.953 Y231.33 E21.67603
G1 X162.652 Y231.774 E21.69387
G1 X161.905 Y232.749 E21.73472
G1 X161.428 Y233.302 E21.75901
G1 X161.169 Y233.592 E21.77195
G1 X160.987 Y233.788 E21.78084
G1 X160.128 Y234.614 E21.82048
G1 X159.609 Y235.06 E21.84324
G1 X159.331 Y235.291 E21.85526
G1 X159.104 Y235.473 E21.86494
G1 X158.098 Y236.188 E21.90599
G1 X157.491 Y236.568 E21.92981
G1 X157.2 Y236.743 E21.9411
G1 X156.939 Y236.895 E21.95115
G1 X155.82 Y237.461 E21.99285
G1 X155.22 Y237.721 E22.0146
G1 X154.919 Y237.846 E22.02544
G1 X154.622 Y237.964 E22.03607
G1 X153.432 Y238.357 E22.07776
G1 X152.789 Y238.528 E22.09989
G1 X152.508 Y238.599 E22.10952
G1 X152.204 Y238.671 E22.11992
G1 X150.922 Y238.892 E22.16318
G1 X150.205 Y238.971 E22.18718
G1 X149.888 Y239.001 E22.19777
G1 X149.55 Y239.028 E22.20904
G1 X149.208 Y239.05 E22.22044
G1 X148.762 Y239.069 E22.23529
G1 X148.501 Y239.076 E22.24397
G1 X133.381 Y239.34 E22.74694
G1 X132.731 Y239.344 E22.76856
G1 X131.811 Y239.309 E22.79919
G1 X130.898 Y239.195 E22.82979
G1 X129.997 Y239.003 E22.86043
G1 X129.117 Y238.732 E22.89105
G1 X128.264 Y238.387 E22.92166
G1 X127.444 Y237.968 E22.95228
G1 X126.663 Y237.48 E22.98291
G1 X125.928 Y236.927 E23.01351
G1 X125.243 Y236.311 E23.04415
G1 X124.615 Y235.638 E23.07476
G1 X124.047 Y234.914 E23.10537
G1 X123.544 Y234.143 E23.13599
G1 X123.11 Y233.331 E23.16661
G1 X122.748 Y232.484 E23.19725
G1 X122.461 Y231.609 E23.22788
G1 X122.251 Y230.713 E23.25848
G1 X122.119 Y229.802 E23.2891
G1 X122.079 Y229.27 E23.30684
G1 X122.064 Y228.968 E23.3169
G1 X122.053 Y228.627 E23.32825
G1 X121.609 Y203.176 E24.17488
G1 X121.596 Y201.718 E24.22338
G1 X121.626 Y200.798 E24.25399
G1 X121.736 Y199.884 E24.28461
G1 X121.925 Y198.983 E24.31523
G1 X122.192 Y198.102 E24.34585
G1 X122.534 Y197.247 E24.37648
G1 X122.978 Y196.373 E24.40908
G1 X123.173 Y196.029 E24.42223
G1 X124.433 Y193.747 E24.50894
G1 X125.575 Y191.535 E24.59173
G1 X126.696 Y189.205 E24.67773
G1 X127.715 Y186.92 E24.76095
G1 X128.681 Y184.582 E24.84508
G1 X129.583 Y182.215 E24.92933
G1 X130.413 Y179.824 E25.01351
G1 X131.172 Y177.431 E25.09701
G1 X131.874 Y174.973 E25.18204
G1 X132.497 Y172.54 E25.26557
G1 X133.053 Y170.067 E25.34987
G1 X133.534 Y167.613 E25.43305
G1 X133.956 Y165.081 E25.51842
G1 X134.3 Y162.587 E25.60216
G1 X134.571 Y160.105 E25.6852
G1 X134.778 Y157.537 E25.77089
G1 X134.908 Y155.051 E25.85369
G1 X134.968 Y152.512 E25.93816
G1 X134.958 Y149.968 E26.02277
G1 X134.875 Y147.449 E26.1066
G1 X134.722 Y144.944 E26.19007
G1 X134.496 Y142.418 E26.27442
G1 X134.196 Y139.881 E26.35939
G1 X133.835 Y137.412 E26.44239
G1 X133.389 Y134.879 E26.52793
G1 X132.892 Y132.453 E26.61029
G1 X132.312 Y129.985 E26.69462
G1 X131.661 Y127.53 E26.77909
G1 X130.936 Y125.075 E26.86423
G1 X130.164 Y122.711 E26.94695
G1 X129.312 Y120.329 E27.03109
G1 X128.382 Y117.946 E27.11617
G1 X127.399 Y115.624 E27.20003
G1 X126.35 Y113.327 E27.28402
G1 X125.243 Y111.076 E27.36745
G1 X124.052 Y108.818 E27.45236
G1 X122.823 Y106.64 E27.53554
G1 X121.659 Y104.72 E27.61022
G1 X121.266 Y104.053 E27.63597
G1 X120.834 Y103.24 E27.66659
G1 X120.474 Y102.393 E27.6972
G1 X120.188 Y101.518 E27.72782
G1 X119.98 Y100.621 E27.75844
G1 X119.85 Y99.71 E27.78905
G1 X119.807 Y99.072 E27.81032
G1 X119.789 Y98.588 E27.82643
G1 X119.767 Y97.656 E27.85743
G1 X119.322 Y72.197 E28.70433
G1 X119.319 Y71.592 E28.72445
G1 X119.355 Y70.672 E28.75508
G1 X119.47 Y69.758 E28.78572
G1 X119.664 Y68.858 E28.81634
G1 X119.935 Y67.978 E28.84696
G1 X120.282 Y67.125 E28.87759
G1 X120.701 Y66.306 E28.90819
G0 F7500 X121.1 Y66.414
G1 F1500 X121.588 Y65.654 E28.93823
G1 X122.141 Y64.94 E28.96827
G1 X122.755 Y64.278 E28.9983
G1 X123.426 Y63.673 E29.02835
G1 X124.147 Y63.129 E29.05839
G1 X124.914 Y62.652 E29.08843
G1 X125.719 Y62.244 E29.11845
G1 X126.558 Y61.909 E29.14849
G1 X127.423 Y61.649 E29.17854
G1 X128.307 Y61.467 E29.20856
G1 X129.405 Y61.352 E29.24527
G1 X129.702 Y61.337 E29.25517
G1 X130.038 Y61.326 E29.26635
G1 X145.262 Y61.06 E29.77278
G1 X145.918 Y61.057 E29.7946
G1 X146.293 Y61.062 E29.80707
G1 X146.635 Y61.073 E29.81845
G1 X147.044 Y61.095 E29.83207
G1 X147.624 Y61.137 E29.85141
G1 X148.799 Y61.291 E29.89083
G1 X149.522 Y61.429 E29.91531
G1 X149.896 Y61.507 E29.92802
G1 X150.17 Y61.57 E29.93737
G1 X151.26 Y61.886 E29.97511
G1 X151.836 Y62.088 E29.99542
G1 X152.184 Y62.217 E30.00776
G1 X152.518 Y62.348 E30.01969
G1 X153.563 Y62.828 E30.05794
G1 X154.202 Y63.166 E30.08198
G1 X154.49 Y63.324 E30.09291
G1 X154.723 Y63.457 E30.10183
G1 X155.753 Y64.13 E30.14276
G1 X156.303 Y64.539 E30.16555
G1 X156.527 Y64.711 E30.17495
G1 X156.767 Y64.9 E30.18511
G1 X157.691 Y65.723 E30.22626
G1 X158.176 Y66.211 E30.24915
G1 X158.389 Y66.432 E30.25935
G1 X158.593 Y66.65 E30.26928
G1 X159.355 Y67.567 E30.30894
G1 X159.756 Y68.111 E30.33142
G1 X159.966 Y68.406 E30.34346
G1 X160.302 Y68.901 E30.36336
G1 X160.411 Y69.068 E30.36999
G1 X160.556 Y69.297 E30.37901
G1 X160.756 Y69.624 E30.39176
G1 X174.56 Y92.599 E31.28323
G1 X174.795 Y93.002 E31.29874
G1 X174.97 Y93.314 E31.31064
G1 X175.383 Y94.083 E31.33968
G1 X175.544 Y94.396 E31.35138
G1 X175.655 Y94.621 E31.35973
G1 X175.984 Y95.36 E31.38663
G1 X176.078 Y95.596 E31.39508
G1 X176.25 Y96.059 E31.41151
G1 X176.447 Y96.633 E31.43169
G1 X176.697 Y97.479 E31.46103
G1 X176.766 Y97.756 E31.47053
G1 X176.86 Y98.173 E31.48475
G1 X176.976 Y98.739 E31.50396
G1 X177.122 Y99.664 E31.53511
G1 X177.155 Y99.962 E31.54508
G1 X177.194 Y100.395 E31.55954
G1 X177.217 Y100.734 E31.57084
G1 X177.233 Y101.051 E31.5814
G1 X177.275 Y102.198 E31.61957
G1 X177.28 Y102.393 E31.62606
G1 X178.925 Y196.639 E34.76117
G1 X178.927 Y197.067 E34.77541
G1 X178.922 Y197.423 E34.78725
G1 X178.897 Y198.251 E34.8148
G1 X178.882 Y198.582 E34.82582
G1 X178.865 Y198.853 E34.83485
G1 X178.775 Y199.705 E34.86335
G1 X178.703 Y200.173 E34.8791
