;FLAVOR:Marlin
;TIME:2728
;Filament used: 1.38598m
;Layer height: 0.2
;MINX:125.497
;MINY:131.098
;MINZ:0.2
;MAXX:173.98
;MAXY:168.902
;MAXZ:42.6
;Generated with Creality Slicer 4.8.2-216
M140 S60
M105
M190 S60
M104 S200
M105
M109 S200
M82 ;absolute extrusion mode

G28 ;Home

G92 E0 ;Reset Extruder
G1 Z2.0 F3000 ;Move Z Axis up
G1 X10.1 Y20 Z0.28 F5000.0 ;Move to start position
G1 X10.1 Y200.0 Z0.28 F1500.0 E15 ;Draw the first line
G1 X10.4 Y200.0 Z0.28 F5000.0 ;Move to side a little
G1 X10.4 Y20 Z0.28 F1500.0 E30 ;Draw the second line
G92 E0 ;Reset Extruder
G1 Z2.0 F3000 ;Move Z Axis up

G92 E0
G92 E0
G1 F2400 E-0.8
;LAYER_COUNT:213
;LAYER:0
M107
G0 F7500 X131.969 Y135.956 Z0.2
;TYPE:SKIRT
G1 F2400 E0
G1 F1500 X132.535 Y135.449 E0.02527
G1 X132.725 Y135.29 E0.03351
G1 X132.983 Y135.08 E0.04458
G1 X133.147 Y134.951 E0.05152
G1 X134.162 Y134.242 E0.0927
G1 X134.584 Y133.981 E0.1092
G1 X135.081 Y133.691 E0.12834
G1 X135.205 Y133.623 E0.13304
G1 X135.52 Y133.457 E0.14489
G1 X135.881 Y133.274 E0.15835
G1 X136.387 Y133.033 E0.17699
G1 X136.513 Y132.977 E0.18157
G1 X137.176 Y132.708 E0.20537
G1 X137.751 Y132.496 E0.22575
G1 X138.134 Y132.363 E0.23924
G1 X138.467 Y132.254 E0.25089
G1 X138.85 Y132.136 E0.26422
G1 X139.417 Y131.973 E0.28385
G1 X140.112 Y131.798 E0.30768
G1 X140.951 Y131.615 E0.33624
G1 X141.311 Y131.542 E0.34846
G1 X141.491 Y131.509 E0.35455
G1 X141.832 Y131.452 E0.36605
G1 X142.388 Y131.368 E0.38475
G1 X142.715 Y131.324 E0.39572
G1 X143.13 Y131.274 E0.40963
G1 X143.43 Y131.242 E0.41966
G1 X143.883 Y131.2 E0.43479
G1 X144.185 Y131.176 E0.44487
G1 X144.769 Y131.138 E0.46433
G1 X145.085 Y131.122 E0.47486
G1 X145.361 Y131.112 E0.48404
G1 X145.617 Y131.106 E0.49256
G1 X146.235 Y131.098 E0.51312
G1 X146.539 Y131.098 E0.52323
G1 X146.879 Y131.103 E0.53454
G1 X147.165 Y131.111 E0.54405
G1 X147.827 Y131.138 E0.56609
G1 X148.101 Y131.153 E0.57522
G1 X148.39 Y131.172 E0.58485
G1 X148.686 Y131.195 E0.59472
G1 X149.181 Y131.241 E0.61126
G1 X149.497 Y131.275 E0.62183
G1 X149.98 Y131.334 E0.63801
G1 X150.286 Y131.376 E0.64829
G1 X150.664 Y131.433 E0.661
G1 X150.976 Y131.485 E0.67152
G1 X151.525 Y131.584 E0.69008
G1 X151.94 Y131.666 E0.70415
G1 X152.347 Y131.758 E0.71802
G1 X153.187 Y131.966 E0.74681
G1 X153.541 Y132.06 E0.75899
G1 X153.714 Y132.109 E0.76497
G1 X153.992 Y132.192 E0.77462
G1 X154.989 Y132.504 E0.80937
G1 X156.175 Y132.889 E0.85084
G1 X158.588 Y133.599 E0.9345
G1 X161.06 Y134.25 E1.01952
G1 X163.066 Y134.723 E1.08807
G1 X163.44 Y134.807 E1.10082
G1 X163.727 Y134.876 E1.11064
G1 X163.976 Y134.939 E1.11918
G1 X164.29 Y135.023 E1.12999
G1 X164.578 Y135.105 E1.13995
G1 X165.416 Y135.381 E1.16929
G1 X165.598 Y135.449 E1.17576
G1 X166.081 Y135.642 E1.19306
G1 X166.298 Y135.735 E1.20091
G1 X167.458 Y136.316 E1.24406
G1 X167.916 Y136.58 E1.26164
G1 X168.708 Y137.082 E1.29283
G1 X169.79 Y137.942 E1.3388
G1 X170.045 Y138.172 E1.35022
G1 X170.714 Y138.829 E1.38141
G1 X171.535 Y139.817 E1.42413
G1 X171.711 Y140.056 E1.43401
G1 X172.297 Y140.936 E1.46917
G1 X172.346 Y141.018 E1.47235
G1 X172.792 Y141.843 E1.50354
G1 X173.166 Y142.703 E1.53473
G1 X173.466 Y143.592 E1.56594
G1 X173.654 Y144.332 E1.59133
G1 X173.732 Y144.692 E1.60358
G1 X173.891 Y145.616 E1.63477
G1 X173.971 Y146.55 E1.66595
G1 X173.98 Y147.186 E1.6871
G1 X173.956 Y148.728 E1.73839
G1 X173.954 Y148.799 E1.74076
G1 X173.954 Y151.294 E1.82374
G1 X173.968 Y151.862 E1.84264
G1 X173.98 Y152.861 E1.87587
G1 X173.951 Y153.798 E1.90705
G1 X173.769 Y155.143 E1.95219
G1 X173.709 Y155.444 E1.9624
G1 X173.486 Y156.356 E1.99363
G1 X173.187 Y157.244 E2.02479
G1 X172.813 Y158.105 E2.05601
G1 X172.397 Y158.881 E2.0853
G1 X172.216 Y159.188 E2.09715
G1 X171.705 Y159.975 E2.12836
G1 X171.13 Y160.715 E2.15953
G1 X170.518 Y161.379 E2.18956
G1 X170.431 Y161.466 E2.19366
G1 X170.116 Y161.769 E2.20819
G1 X169.959 Y161.914 E2.2153
G1 X169.244 Y162.52 E2.24647
G1 X168.367 Y163.136 E2.28212
G1 X167.955 Y163.396 E2.29832
G1 X167.141 Y163.862 E2.32952
G1 X166.48 Y164.176 E2.35386
G1 X165.98 Y164.394 E2.372
G1 X164.766 Y164.841 E2.41503
G1 X164.584 Y164.896 E2.42135
G1 X164.102 Y165.029 E2.43798
G1 X163.715 Y165.127 E2.45126
G1 X163.415 Y165.199 E2.46152
G1 X162.998 Y165.292 E2.47573
G1 X160.456 Y165.898 E2.56265
G1 X158.058 Y166.542 E2.64523
G1 X154.513 Y167.626 E2.76853
G1 X154.151 Y167.744 E2.78119
G1 X153.774 Y167.86 E2.79431
G1 X153.197 Y168.026 E2.81428
G1 X152.5 Y168.202 E2.83819
G1 X151.661 Y168.385 E2.86675
G1 X151.291 Y168.459 E2.8793
G1 X150.807 Y168.543 E2.89564
G1 X150.22 Y168.632 E2.91539
G1 X149.88 Y168.678 E2.9268
G1 X149.396 Y168.736 E2.94301
G1 X149.098 Y168.767 E2.95298
G1 X148.762 Y168.798 E2.9642
G1 X148.473 Y168.821 E2.97384
G1 X147.895 Y168.859 E2.99311
G1 X147.595 Y168.875 E3.0031
G1 X147.256 Y168.888 E3.01439
G1 X146.963 Y168.895 E3.02413
G1 X146.364 Y168.902 E3.04406
G1 X146.073 Y168.902 E3.05374
G1 X145.733 Y168.897 E3.06505
G1 X145.454 Y168.889 E3.07433
G1 X144.781 Y168.862 E3.09673
G1 X144.504 Y168.848 E3.10596
G1 X144.229 Y168.83 E3.11512
G1 X143.918 Y168.805 E3.1255
G1 X143.407 Y168.757 E3.14257
G1 X143.101 Y168.724 E3.15281
G1 X142.643 Y168.668 E3.16815
G1 X142.325 Y168.624 E3.17883
G1 X141.904 Y168.56 E3.19299
G1 X141.603 Y168.51 E3.20314
G1 X141.121 Y168.423 E3.21943
G1 X140.702 Y168.34 E3.23364
G1 X140.265 Y168.242 E3.24854
G1 X139.425 Y168.034 E3.27732
G1 X139.047 Y167.933 E3.29033
G1 X138.851 Y167.877 E3.29711
G1 X138.005 Y167.597 E3.32675
G1 X137.036 Y167.233 E3.36118
G1 X136.54 Y167.033 E3.37897
G1 X136.16 Y166.863 E3.39281
G1 X135.863 Y166.723 E3.40373
G1 X135.027 Y166.284 E3.43514
G1 X134.848 Y166.18 E3.44202
G1 X134.239 Y165.8 E3.4659
G1 X133.663 Y165.413 E3.48898
G1 X132.751 Y164.728 E3.52692
G1 X132.576 Y164.582 E3.5345
G1 X131.882 Y163.952 E3.56567
G1 X131.397 Y163.439 E3.58915
G1 X131.065 Y163.065 E3.60579
G1 X130.472 Y162.337 E3.63702
G1 X129.965 Y161.596 E3.66688
G1 X129.596 Y160.963 E3.69125
G1 X128.999 Y159.857 E3.73305
G1 X128.521 Y158.95 E3.76715
G1 X127.857 Y157.77 E3.81218
G1 X127.765 Y157.588 E3.81897
G1 X127.169 Y156.532 E3.8593
G1 X126.573 Y155.305 E3.90467
G1 X126.472 Y155.059 E3.91351
G1 X126.079 Y153.929 E3.9533
G1 X126.002 Y153.662 E3.96255
G1 X125.75 Y152.589 E3.99921
G1 X125.702 Y152.326 E4.0081
G1 X125.551 Y151.137 E4.04796
G1 X125.525 Y150.774 E4.06007
G1 X125.497 Y149.988 E4.08622
G1 X125.497 Y149.941 E4.08779
G1 X125.527 Y149.135 E4.11461
G1 X125.545 Y148.89 E4.12278
G1 X125.654 Y147.955 E4.15409
G1 X125.675 Y147.824 E4.15851
G1 X125.862 Y146.908 E4.1896
G1 X125.976 Y146.45 E4.2053
G1 X126.358 Y145.223 E4.24804
G1 X126.604 Y144.617 E4.26979
G1 X126.697 Y144.406 E4.27746
G1 X126.924 Y143.924 E4.29518
G1 X126.958 Y143.856 E4.29771
G1 X127.234 Y143.339 E4.3172
G1 X127.794 Y142.354 E4.35489
G1 X129.081 Y140.015 E4.44369
G1 X129.471 Y139.269 E4.47168
G1 X130.125 Y138.176 E4.51405
G1 X130.278 Y137.951 E4.5231
G1 X131.102 Y136.885 E4.56791
G1 X131.322 Y136.634 E4.57901
G1 X131.969 Y135.956 E4.61018
G0 F7500 X132.259 Y136.233
G1 F1500 X132.791 Y135.756 E4.63395
G1 X132.981 Y135.597 E4.64219
G1 X133.231 Y135.395 E4.65288
G1 X133.395 Y135.266 E4.65982
G1 X134.372 Y134.582 E4.69948
G1 X134.794 Y134.321 E4.71599
G1 X135.273 Y134.042 E4.73443
G1 X135.397 Y133.974 E4.73913
G1 X135.701 Y133.813 E4.75057
G1 X136.062 Y133.63 E4.76403
G1 X136.55 Y133.399 E4.78199
G1 X136.676 Y133.343 E4.78658
G1 X137.314 Y133.083 E4.80949
G1 X137.889 Y132.871 E4.82987
G1 X138.258 Y132.743 E4.84286
G1 X138.591 Y132.634 E4.85452
G1 X138.96 Y132.521 E4.86735
G1 X139.527 Y132.358 E4.88698
G1 X140.197 Y132.188 E4.90997
G1 X141.036 Y132.005 E4.93853
G1 X141.384 Y131.936 E4.95033
G1 X141.564 Y131.903 E4.95641
G1 X141.892 Y131.848 E4.96747
G1 X142.448 Y131.764 E4.98618
G1 X142.763 Y131.721 E4.99675
G1 X143.178 Y131.671 E5.01065
G1 X143.467 Y131.64 E5.02032
G1 X143.92 Y131.598 E5.03545
G1 X144.211 Y131.575 E5.04516
G1 X144.795 Y131.537 E5.06463
G1 X145.099 Y131.522 E5.07475
G1 X145.375 Y131.512 E5.08394
G1 X145.622 Y131.506 E5.09215
G1 X146.24 Y131.498 E5.11271
G1 X146.533 Y131.498 E5.12246
G1 X146.873 Y131.503 E5.13377
G1 X147.149 Y131.511 E5.14295
G1 X147.811 Y131.538 E5.16499
G1 X148.074 Y131.552 E5.17375
G1 X148.363 Y131.571 E5.18338
G1 X148.649 Y131.593 E5.19292
G1 X149.144 Y131.639 E5.20945
G1 X149.448 Y131.672 E5.21962
G1 X149.931 Y131.731 E5.23581
G1 X150.227 Y131.771 E5.24574
G1 X150.605 Y131.828 E5.25846
G1 X150.905 Y131.878 E5.26857
G1 X151.454 Y131.977 E5.28713
G1 X151.859 Y132.057 E5.30086
G1 X152.251 Y132.147 E5.31423
G1 X153.091 Y132.355 E5.34302
G1 X153.432 Y132.445 E5.35475
G1 X153.605 Y132.494 E5.36073
G1 X153.873 Y132.574 E5.37003
G1 X154.866 Y132.885 E5.40464
G1 X156.054 Y133.271 E5.44619
G1 X158.478 Y133.984 E5.53022
G1 X160.945 Y134.634 E5.61508
G1 X163.041 Y135.128 E5.6867
G1 X163.352 Y135.198 E5.6973
G1 X163.629 Y135.264 E5.70677
G1 X163.878 Y135.327 E5.71532
G1 X164.181 Y135.408 E5.72575
G1 X164.469 Y135.49 E5.73571
G1 X165.276 Y135.755 E5.76396
G1 X165.458 Y135.823 E5.77042
G1 X165.924 Y136.01 E5.78712
G1 X166.141 Y136.103 E5.79497
G1 X167.259 Y136.662 E5.83655
G1 X167.717 Y136.926 E5.85413
G1 X168.493 Y137.42 E5.88473
G1 X169.523 Y138.239 E5.92849
G1 X169.778 Y138.469 E5.93992
G1 X170.434 Y139.114 E5.97051
G1 X171.213 Y140.055 E6.01114
G1 X171.389 Y140.294 E6.02102
G1 X171.953 Y141.142 E6.05489
G1 X172.002 Y141.224 E6.05807
G1 X172.44 Y142.034 E6.08869
G1 X172.805 Y142.879 E6.11931
G1 X173.096 Y143.752 E6.14992
G1 X173.263 Y144.416 E6.17269
G1 X173.341 Y144.776 E6.18494
G1 X173.496 Y145.684 E6.21558
G1 X173.573 Y146.601 E6.24618
G1 X173.58 Y147.18 E6.26544
G1 X173.556 Y148.717 E6.31657
G1 X173.554 Y148.788 E6.31893
G1 X173.554 Y151.306 E6.40268
G1 X173.568 Y151.867 E6.42135
G1 X173.58 Y152.866 E6.45458
G1 X173.551 Y153.786 E6.48519
G1 X173.376 Y155.065 E6.52813
G1 X173.316 Y155.366 E6.53833
G1 X173.097 Y156.26 E6.56895
G1 X172.802 Y157.132 E6.59957
G1 X172.431 Y157.975 E6.6302
G1 X172.052 Y158.678 E6.65676
G1 X171.871 Y158.985 E6.66862
G1 X171.37 Y159.757 E6.69923
G1 X170.803 Y160.482 E6.72984
G1 X170.235 Y161.096 E6.75766
G1 X170.148 Y161.183 E6.76175
G1 X169.845 Y161.475 E6.77575
G1 X169.688 Y161.62 E6.78285
G1 X168.985 Y162.215 E6.81349
G1 X168.153 Y162.797 E6.84726
G1 X167.741 Y163.057 E6.86346
G1 X166.942 Y163.514 E6.89408
G1 X166.32 Y163.81 E6.91699
G1 X165.82 Y164.028 E6.93513
G1 X164.65 Y164.458 E6.97659
G1 X164.468 Y164.513 E6.98291
G1 X164.004 Y164.642 E6.99893
G1 X163.617 Y164.74 E7.01221
G1 X163.328 Y164.809 E7.02209
G1 X162.882 Y164.909 E7.03729
G1 X160.365 Y165.509 E7.12335
G1 X157.955 Y166.156 E7.20635
G1 X154.383 Y167.248 E7.33058
G1 X154.027 Y167.364 E7.34303
G1 X153.664 Y167.476 E7.35567
G1 X153.087 Y167.642 E7.37564
G1 X152.415 Y167.812 E7.39869
G1 X151.576 Y167.995 E7.42726
G1 X151.219 Y168.066 E7.43936
G1 X151.06 Y168.095 E7.44474
G1 X150.747 Y168.147 E7.45529
G1 X150.16 Y168.236 E7.47504
G1 X149.832 Y168.281 E7.48605
G1 X149.348 Y168.339 E7.50226
G1 X149.061 Y168.369 E7.51186
G1 X148.725 Y168.4 E7.52308
G1 X148.446 Y168.422 E7.53239
G1 X147.868 Y168.46 E7.55166
G1 X147.579 Y168.475 E7.56128
G1 X147.24 Y168.488 E7.57257
G1 X146.958 Y168.495 E7.58195
G1 X146.359 Y168.502 E7.60187
G1 X146.079 Y168.502 E7.61118
G1 X145.739 Y168.497 E7.62249
G1 X145.47 Y168.489 E7.63145
G1 X144.797 Y168.462 E7.65385
G1 X144.53 Y168.448 E7.66274
G1 X144.255 Y168.43 E7.67191
G1 X143.956 Y168.407 E7.68188
G1 X143.445 Y168.359 E7.69895
G1 X143.15 Y168.327 E7.70882
G1 X142.692 Y168.271 E7.72417
G1 X142.385 Y168.229 E7.73447
G1 X141.964 Y168.165 E7.74864
G1 X141.674 Y168.116 E7.75842
G1 X141.192 Y168.029 E7.77471
G1 X140.782 Y167.948 E7.78861
G1 X140.361 Y167.853 E7.80296
G1 X139.521 Y167.645 E7.83175
G1 X139.157 Y167.548 E7.84428
G1 X138.961 Y167.492 E7.85106
G1 X138.145 Y167.223 E7.87963
G1 X137.176 Y166.859 E7.91406
G1 X136.696 Y166.665 E7.93128
G1 X136.33 Y166.501 E7.94462
G1 X136.033 Y166.361 E7.95554
G1 X135.228 Y165.938 E7.98579
G1 X135.049 Y165.834 E7.99267
G1 X134.462 Y165.468 E8.01568
G1 X133.886 Y165.081 E8.03876
G1 X133.007 Y164.421 E8.07532
G1 X132.832 Y164.275 E8.0829
G1 X132.152 Y163.655 E8.11351
G1 X131.696 Y163.173 E8.13557
G1 X131.364 Y162.799 E8.15221
G1 X130.783 Y162.085 E8.18282
G1 X130.304 Y161.383 E8.21109
G1 X129.948 Y160.773 E8.23458
G1 X129.353 Y159.671 E8.27624
G1 X128.857 Y158.73 E8.31162
G1 X128.206 Y157.573 E8.35577
G1 X128.127 Y157.418 E8.36156
G1 X127.517 Y156.336 E8.40287
G1 X126.943 Y155.153 E8.4466
G1 X126.842 Y154.907 E8.45545
G1 X126.463 Y153.818 E8.4938
G1 X126.386 Y153.551 E8.50304
G1 X126.143 Y152.517 E8.53837
G1 X126.095 Y152.254 E8.54726
G1 X125.95 Y151.108 E8.58568
G1 X125.924 Y150.745 E8.59779
G1 X125.897 Y149.988 E8.62298
G1 X125.897 Y149.941 E8.62454
G1 X125.925 Y149.164 E8.6504
G1 X125.943 Y148.919 E8.65857
G1 X126.049 Y148.018 E8.68875
G1 X126.07 Y147.887 E8.69316
G1 X126.25 Y147.005 E8.7231
G1 X126.364 Y146.547 E8.7388
G1 X126.733 Y145.365 E8.77998
G1 X126.97 Y144.779 E8.80101
G1 X127.063 Y144.568 E8.80868
G1 X127.282 Y144.103 E8.82577
G1 X127.316 Y144.035 E8.8283
G1 X127.582 Y143.537 E8.84708
G1 X128.132 Y142.569 E8.88411
G1 X129.42 Y140.23 E8.97292
G1 X129.825 Y139.454 E9.00203
G1 X130.456 Y138.401 E9.04286
G1 X130.609 Y138.176 E9.05191
G1 X131.403 Y137.149 E9.09509
G1 X131.623 Y136.898 E9.10619
G1 X132.259 Y136.233 E9.13679
G0 F7500 X132.548 Y136.51
G1 F1500 X133.048 Y136.063 E9.1591
G1 X133.238 Y135.904 E9.16734
G1 X133.478 Y135.709 E9.17763
G1 X133.642 Y135.58 E9.18457
G1 X134.583 Y134.922 E9.22276
G1 X135.005 Y134.661 E9.23926
G1 X135.466 Y134.393 E9.257
G1 X135.882 Y134.17 E9.27269
G1 X136.243 Y133.987 E9.28616
G1 X136.712 Y133.764 E9.30343
G1 X136.838 Y133.708 E9.30801
G1 X137.452 Y133.459 E9.33005
G1 X138.027 Y133.247 E9.35044
G1 X138.383 Y133.123 E9.36297
G1 X138.716 Y133.014 E9.37463
G1 X139.071 Y132.905 E9.38698
G1 X139.638 Y132.742 E9.4066
G1 X140.282 Y132.579 E9.4287
G1 X141.121 Y132.396 E9.45726
G1 X141.456 Y132.329 E9.46862
G1 X141.636 Y132.296 E9.47471
G1 X141.951 Y132.243 E9.48533
G1 X142.507 Y132.159 E9.50403
G1 X142.811 Y132.118 E9.51424
G1 X143.226 Y132.068 E9.52814
G1 X143.504 Y132.039 E9.53744
G1 X143.957 Y131.997 E9.55257
G1 X144.237 Y131.975 E9.56191
G1 X144.821 Y131.937 E9.58137
G1 X145.114 Y131.922 E9.59113
G1 X145.627 Y131.906 E9.6082
G1 X146.245 Y131.898 E9.62876
G1 X146.527 Y131.898 E9.63814
G1 X146.867 Y131.903 E9.64945
G1 X147.133 Y131.91 E9.6583
G1 X147.795 Y131.937 E9.68033
G1 X148.337 Y131.97 E9.69839
G1 X148.612 Y131.992 E9.70757
G1 X149.107 Y132.038 E9.72411
G1 X149.4 Y132.069 E9.7339
G1 X149.883 Y132.128 E9.75009
G1 X150.167 Y132.167 E9.75962
G1 X150.545 Y132.224 E9.77234
G1 X150.834 Y132.272 E9.78208
G1 X151.383 Y132.371 E9.80064
G1 X151.777 Y132.449 E9.81399
G1 X152.155 Y132.535 E9.82689
G1 X152.995 Y132.743 E9.85567
G1 X153.323 Y132.83 E9.86696
G1 X153.496 Y132.879 E9.87294
G1 X153.754 Y132.956 E9.88189
G1 X154.742 Y133.265 E9.91632
G1 X155.954 Y133.659 E9.95871
G1 X158.369 Y134.369 E10.04243
G1 X160.822 Y135.015 E10.1268
G1 X162.979 Y135.524 E10.20052
G1 X163.264 Y135.588 E10.21023
G1 X163.531 Y135.652 E10.21936
G1 X163.78 Y135.715 E10.22791
G1 X164.071 Y135.793 E10.23793
G1 X164.359 Y135.875 E10.24789
G1 X165.136 Y136.13 E10.27508
G1 X165.318 Y136.198 E10.28155
G1 X165.766 Y136.378 E10.2976
G1 X165.983 Y136.471 E10.30546
G1 X167.059 Y137.009 E10.34547
G1 X167.517 Y137.273 E10.36305
G1 X168.279 Y137.758 E10.39309
G1 X169.255 Y138.536 E10.43461
G1 X169.51 Y138.766 E10.44603
G1 X170.153 Y139.4 E10.47606
G1 X170.891 Y140.292 E10.51457
G1 X171.067 Y140.531 E10.52444
G1 X171.61 Y141.347 E10.55704
